svgs/light/high-definition.svg

<svg xmlns="http://www.w3.org/2000/svg" viewBox="0 0 576 512"><!-- Font Awesome Pro 6.0.0-alpha2 by @fontawesome - https://fontawesome.com License - https://fontawesome.com/license (Commercial License) --><path d="M512 32H64C28.654 32 0 60.652 0 96V416C0 451.346 28.654 480 64 480H512C547.346 480 576 451.346 576 416V96C576 60.652 547.346 32 512 32ZM544 416C544 433.645 529.645 448 512 448H64C46.355 448 32 433.645 32 416V96C32 78.355 46.355 64 64 64H512C529.645 64 544 78.355 544 96V416ZM256 160C247.156 160 240 167.156 240 176V240H144V176C144 167.156 136.844 160 128 160S112 167.156 112 176V336C112 344.844 119.156 352 128 352S144 344.844 144 336V272H240V336C240 344.844 247.156 352 256 352S272 344.844 272 336V176C272 167.156 264.844 160 256 160ZM384 160H336C327.156 160 320 167.156 320 176V336C320 344.844 327.156 352 336 352H384C436.938 352 480 308.938 480 256S436.938 160 384 160ZM384 320H352V192H384C419.281 192 448 220.703 448 256S419.281 320 384 320Z"/></svg>

<svg xmlns="http://www.w3.org/2000/svg" viewBox="0 0 576 512"><!--! Font Awesome Pro 6.3.0 by @fontawesome - https://fontawesome.com License - https://fontawesome.com/license (Commercial License) Copyright 2023 Fonticons, Inc. --><path d="M512 32H64C28.65 32 0 60.65 0 96v320c0 35.35 28.65 64 64 64h448c35.35 0 64-28.65 64-64V96C576 60.65 547.3 32 512 32zM544 416c0 17.64-14.36 32-32 32H64c-17.64 0-32-14.36-32-32V96c0-17.64 14.36-32 32-32h448c17.64 0 32 14.36 32 32V416zM256 160C247.2 160 240 167.2 240 176v64h-96v-64C144 167.2 136.8 160 128 160S112 167.2 112 176v160C112 344.8 119.2 352 128 352s16-7.156 16-16v-64h96v64C240 344.8 247.2 352 256 352s16-7.156 16-16v-160C272 167.2 264.8 160 256 160zM384 160h-48C327.2 160 320 167.2 320 176v160c0 8.844 7.156 16 16 16H384c52.94 0 96-43.06 96-96S436.9 160 384 160zM384 320h-32V192h32c35.28 0 64 28.7 64 64S419.3 320 384 320z"/></svg>
